assets/logos/mobilepay.svg

<svg xmlns="http://www.w3.org/2000/svg" width="215" height="69" viewBox="0 0 215 69">
  <defs>
    <linearGradient id="a" x1="48.743%" x2="52.403%" y1="76.002%" y2="-.583%">
      <stop stop-color="#504678" offset="0%"/>
      <stop stop-color="#504678" stop-opacity=".616" offset="30.2%"/>
      <stop stop-color="#504678" stop-opacity=".283" offset="60.8%"/>
      <stop stop-color="#504678" stop-opacity=".076" offset="85.2%"/>
      <stop stop-color="#504678" stop-opacity="0" offset="100%"/>
    </linearGradient>
    <linearGradient id="b" x1="13.702%" x2="57.382%" y1="66.341%" y2="41.255%">
      <stop stop-color="#504678" offset="0%"/>
      <stop stop-color="#504678" stop-opacity=".872" offset="17.9%"/>
      <stop stop-color="#504678" stop-opacity=".536" offset="52.6%"/>
      <stop stop-color="#504678" stop-opacity="0" offset="100%"/>
    </linearGradient>
    <linearGradient id="c" x1="47.724%" x2="45.261%" y1="34.971%" y2="18.375%">
      <stop stop-color="#504678" offset="0%"/>
      <stop stop-color="#504678" stop-opacity=".332" offset="64.3%"/>
      <stop stop-color="#504678" stop-opacity="0" offset="100%"/>
    </linearGradient>
  </defs>
  <g fill="none">
    <path fill="#5A78FF" d="M25.965,68.979 C23.605482,68.979138 21.4780237,67.5584647 20.574,65.379 L0.447,16.791 C-0.784372392,13.8180512 0.627208604,10.4097524 3.6,9.178 L24.681,0.447 C26.108502,-0.144569284 27.712562,-0.144702299 29.1401622,0.446630228 C30.5677623,1.03796276 31.7019083,2.17230013 32.293,3.6 L52.42,52.19 C53.6493734,55.1621201 52.2381352,58.5682483 49.267,59.8 L28.186,68.535 C27.482039,68.8275195 26.7273178,68.9783958 25.965,68.979 Z M26.911,3.138 C26.5577169,3.13858035 26.2080265,3.20892623 25.882,3.345 L4.8,12.076 C4.14100756,12.3489652 3.61746865,12.8725747 3.34459229,13.531604 C3.07171593,14.1906332 3.07186259,14.9310789 3.345,15.59 L23.472,64.181 C24.0417254,65.5520026 25.6135732,66.2032862 26.986,65.637 L48.067,56.9 L48.067,56.9 C48.7259924,56.6270348 49.2495313,56.1034253 49.5224077,55.444396 C49.7952841,54.7853668 49.7951374,54.0449211 49.522,53.386 L29.395,4.8 C28.9783815,3.79538976 27.9985704,3.13981564 26.911,3.138 Z"/>
    <rect width="3.137" height="20.824" x="34.589" y="6.612" fill="url(#a)" opacity=".7" style="mix-blend-mode:multiply" transform="rotate(-22.5 36.157 17.024)"/>
    <rect width="3.137" height="23.572" x="43.554" y="26.884" fill="url(#a)" opacity=".7" style="mix-blend-mode:multiply" transform="rotate(157.5 45.122 38.67)"/>
    <path fill="#5A78FF" d="M44.523,35.724 C38.494,38.224 33.46,41.67 30.164,45.824 L21.666,25.3 C25.5423064,20.7964352 30.4762786,17.3259206 36.025,15.2 C42.054,12.7 48.145,11.49 53.32,12.195 L61.82,32.718 C55.8943454,32.2717289 49.950649,33.3046682 44.523,35.724 Z"/>
    <g opacity=".4" style="mix-blend-mode:multiply" transform="translate(21 11)">
      <path fill="url(#b)" d="M23.523,24.724 C17.494,27.224 12.46,30.67 9.164,34.824 L0.666,14.3 C4.54230641,9.79643522 9.47627864,6.32592059 15.025,4.2 C21.054,1.7 27.145,0.49 32.32,1.195 L40.82,21.718 C34.8943454,21.2717289 28.950649,22.3046682 23.523,24.724 Z" opacity=".9"/>
      <path fill="url(#c)" d="M23.523,24.724 C17.494,27.224 12.46,30.67 9.164,34.824 L0.666,14.3 C4.54230641,9.79643522 9.47627864,6.32592059 15.025,4.2 C21.054,1.7 27.145,0.49 32.32,1.195 L40.82,21.718 C34.8943454,21.2717289 28.950649,22.3046682 23.523,24.724 Z" opacity=".7"/>
    </g>
    <path fill="#5A78FF" d="M47.292 41.981C40.766 41.981 34.792 43.242 30.162 45.816L30.162 25.064C35.466463 22.3872492 41.3525657 21.0694907 47.292 21.229 53.818 21.229 59.909 22.439 64.421 25.069L64.421 45.821C59.1175098 43.1420473 53.2315862 41.8225339 47.292 41.981zM80.63 42L85.91 25.31C85.9653988 25.0788148 86.1630618 24.9093893 86.4 24.89L89.05 24.89C89.287554 24.9233228 89.4874453 25.0847734 89.57 25.31L93.68 35.84C93.76 36.05 93.97 36.07 94.04 35.84L98.12 25.31C98.2025547 25.0847734 98.402446 24.9233228 98.64 24.89L101.29 24.89C101.526938 24.9093893 101.724601 25.0788148 101.78 25.31L107 42C107.060766 42.128491 107.048783 42.2795775 106.968521 42.3968829 106.88826 42.5141883 106.751777 42.580091 106.61 42.57L103.46 42.57C103.236667 42.5801554 103.03837 42.428268 102.99 42.21L99.64 31.37C99.59 31.16 99.35 31.16 99.28 31.37L95.28 42.13C95.2119029 42.3890483 94.9778491 42.5697214 94.71 42.57L92.86 42.57C92.57 42.57 92.42 42.41 92.31 42.13L88.23 31.37C88.15 31.16 87.94 31.16 87.89 31.37L84.46 42.21C84.406737 42.4337181 84.1994112 42.5860391 83.97 42.57L80.97 42.57C80.8347848 42.5679357 80.7102895 42.495973 80.6410136 42.379834 80.5717377 42.263695 80.5675699 42.1199579 80.63 42zM108 36C107.943123 33.1567147 109.612084 30.5616085 112.222786 29.4338927 114.833488 28.306177 117.866983 28.8700155 119.8981 30.8605103 121.929217 32.851005 122.554217 35.8724919 121.479467 38.5054407 120.404718 41.1383895 117.843854 42.8594312 115 42.86 113.149246 42.9230912 111.353432 42.2252993 110.030832 40.9291512 108.708232 39.6330031 107.974307 37.8516509 108 36zM118.4 36C118.274612 34.1300674 116.675451 32.7045903 114.803457 32.7940751 112.931463 32.8835599 111.475563 34.4550746 111.529112 36.3284412 111.582661 38.2018079 113.125951 39.687593 115 39.67 116.946297 39.5888248 118.458949 37.9463884 118.38 36L118.4 36zM128.16 41.49C127.9 41.28 127.67 41.36 127.67 41.72L127.67 42.06C127.670219 42.3229976 127.462779 42.5392655 127.2 42.55L124.76 42.55C124.493743 42.5397481 124.280252 42.3262575 124.27 42.06L124.27 25.37C124.280252 25.1037425 124.493743 24.8902519 124.76 24.88L127.33 24.88C127.592779 24.8907345 127.800219 25.1070024 127.8 25.37L127.8 30.13C127.8 30.47 128.03 30.57 128.4 30.31 129.384247 29.5727054 130.580229 29.1728758 131.81 29.17 135.37 29.17 138.1 32.17 138.1 36.03 138.181225 37.7937508 137.548044 39.5157806 136.343598 40.8067969 135.139151 42.0978131 133.46514 42.8488054 131.7 42.89 130.387712 42.8759395 129.126929 42.3773248 128.16 41.49zM134.56 36.03C134.65842 34.742056 134.027038 33.5075271 132.925173 32.8334506 131.823308 32.159374 130.436692 32.159374 129.334827 32.8334506 128.232962 33.5075271 127.60158 34.742056 127.7 36.03 127.664937 36.9632388 128.006444 37.8714078 128.647735 38.5503113 129.289026 39.2292147 130.176279 39.6218732 131.11 39.64 132.051636 39.6191192 132.945879 39.2227949 133.593799 38.5391918 134.24172 37.8555887 134.589581 36.9414028 134.56 36L134.56 36.03zM140.25 26.1C140.25 24.9954305 141.145431 24.1 142.25 24.1 143.354569 24.1 144.25 24.9954305 144.25 26.1 144.25 27.2045695 143.354569 28.1 142.25 28.1 141.145431 28.1 140.25 27.2045695 140.25 26.1zM140.43 42.1L140.43 30C140.429781 29.7370024 140.637221 29.5207345 140.9 29.51L143.47 29.51C143.605288 29.5045904 143.737175 29.5531995 143.836593 29.645114 143.93601 29.7370285 143.994798 29.8647036 144 30L144 42.06C143.989748 42.3262575 143.776257 42.5397481 143.51 42.55L140.9 42.55C140.637221 42.5392655 140.429781 42.3229976 140.43 42.06L140.43 42.1zM146.86 38.14L146.86 25.37C146.859781 25.1070024 147.067221 24.8907345 147.33 24.88L149.9 24.88C150.166257 24.8902519 150.379748 25.1037425 150.39 25.37L150.39 38.22C150.39 39.05 150.75 39.6 151.66 39.6 151.789956 39.6 151.914589 39.6516249 152.006482 39.7435177 152.098375 39.8354105 152.15 39.9600439 152.15 40.09L152.15 42.22C152.139265 42.4827786 151.922998 42.6902192 151.66 42.69 148.24 42.69 146.86 41.57 146.86 38.14zM153.11 36.08C153.118932 33.6648846 154.415633 31.4379908 156.511651 30.2381681 158.607668 29.0383454 161.184565 29.0478754 163.271651 30.2631681 165.358736 31.4784609 166.638932 33.7148846 166.63 36.13 166.63 36.6 166.5 36.99 166.03 36.99L157.09 36.99C156.86 36.99 156.78 37.12 156.8 37.33 157.022124 38.8964403 158.422534 40.0211445 160 39.9 160.949238 39.9140736 161.855122 39.5033085 162.47 38.78 162.660749 38.5120093 162.971094 38.3549671 163.3 38.36L165.69 38.36C166.11 38.36 166.29 38.65 166.13 39.06 164.728042 41.9182278 161.54171 43.4338501 158.439692 42.718 155.337675 42.0021498 153.137705 39.2435348 153.13 36.06L153.11 36.08zM162.6 34.88C162.78 34.88 162.86 34.8 162.83 34.59 162.557515 33.1546908 161.29072 32.1243641 159.83 32.15 158.401369 32.1486311 157.159327 33.1298447 156.83 34.52 156.78 34.7 156.83 34.88 157.04 34.88L162.6 34.88zM168.79 42.06L168.79 25.37C168.789781 25.1070024 168.997221 24.8907345 169.26 24.88L177.45 24.88C181.19 24.88 183.74 27.06 183.74 30.73 183.74 34.4 180.85 36.66 177.27 36.66L172.93 36.66C172.797984 36.6462519 172.667017 36.6942414 172.575138 36.7900303 172.483259 36.8858192 172.440766 37.0186709 172.46 37.15L172.46 42.06C172.449748 42.3262575 172.236257 42.5397481 171.97 42.55L169.27 42.55C169.003294 42.5445559 168.789944 42.3267619 168.79 42.06zM177.27 33.64C178.819763 33.591012 180.039263 32.3000399 180 30.75 180.02227 30.0158017 179.741087 29.3048573 179.222638 28.7845167 178.70419 28.2641761 177.994275 27.9804048 177.26 28L172.89 28C172.58 28 172.45 28.16 172.45 28.47L172.45 33.2C172.45 33.51 172.58 33.67 172.89 33.67L177.27 33.64zM185 36C184.932574 34.231449 185.577195 32.5097275 186.789533 31.2203263 188.001871 29.930925 189.680652 29.1815554 191.45 29.14 192.726857 29.1469615 193.957235 29.6199103 194.91 30.47 195.14 30.68 195.4 30.65 195.4 30.34L195.4 30C195.4 29.7404262 195.610426 29.53 195.87 29.53L198.31 29.53C198.576257 29.5402519 198.789748 29.7537425 198.8 30.02L198.8 38.6C198.8 39.25 199.03 39.54 199.48 39.6 199.713408 39.6046716 199.904483 39.7870614 199.92 40.02L199.92 42.28C199.92 42.5230053 199.723005 42.72 199.48 42.72 197.76 42.72 196.75 42.23 196.18 41.24 196.02 40.98 195.84 40.93 195.58 41.19 194.481537 42.3207769 192.966349 42.9499957 191.39 42.93 189.61665 42.8785594 187.938944 42.114284 186.736313 40.8100228 185.533683 39.5057616 184.907723 37.7716947 185 36L185 36zM195.4 36C195.498283 34.7157197 194.868778 33.4846345 193.770063 32.8124291 192.671348 32.1402236 191.288652 32.1402236 190.189937 32.8124291 189.091222 33.4846345 188.461717 34.7157197 188.56 36 188.461717 37.2842803 189.091222 38.5153655 190.189937 39.1875709 191.288652 39.8597764 192.671348 39.8597764 193.770063 39.1875709 194.868778 38.5153655 195.498283 37.2842803 195.4 36zM201.13 47.13L201.13 45C201.140735 44.7372214 201.357002 44.5297808 201.62 44.53 203.293077 44.6552724 204.836074 43.623857 205.36 42.03 205.447841 41.6954741 205.412344 41.3405074 205.26 41.03L200.48 30.21C200.397391 30.0628766 200.399984 29.8827608 200.486794 29.7380767 200.573605 29.5933925 200.73131 29.506344 200.9 29.51L203.47 29.51C203.73 29.51 203.89 29.72 203.99 29.98L206.99 36.9C207.2 37.45 207.54 37.42 207.77 36.9L210.63 29.96C210.73 29.7 210.86 29.54 211.12 29.54L213.59 29.54C213.743964 29.5319144 213.891349 29.603213 213.980578 29.7289446 214.069807 29.8546761 214.088456 30.0173359 214.03 30.16L209.11 41.8C207.32 46.04 205.42 47.62 201.62 47.62 201.353743 47.6097481 201.140252 47.3962575 201.13 47.13z"/>
  </g>
</svg>

<svg xmlns="http://www.w3.org/2000/svg" width="215" height="69"><defs><linearGradient id="a" x1="48.743%" x2="52.403%" y1="76.002%" y2="-.583%"><stop offset="0%" stop-color="#504678"/><stop offset="30.2%" stop-color="#504678" stop-opacity=".616"/><stop offset="60.8%" stop-color="#504678" stop-opacity=".283"/><stop offset="85.2%" stop-color="#504678" stop-opacity=".076"/><stop offset="100%" stop-color="#504678" stop-opacity="0"/></linearGradient><linearGradient id="b" x1="13.702%" x2="57.382%" y1="66.341%" y2="41.255%"><stop offset="0%" stop-color="#504678"/><stop offset="17.9%" stop-color="#504678" stop-opacity=".872"/><stop offset="52.6%" stop-color="#504678" stop-opacity=".536"/><stop offset="100%" stop-color="#504678" stop-opacity="0"/></linearGradient><linearGradient id="c" x1="47.724%" x2="45.261%" y1="34.971%" y2="18.375%"><stop offset="0%" stop-color="#504678"/><stop offset="64.3%" stop-color="#504678" stop-opacity=".332"/><stop offset="100%" stop-color="#504678" stop-opacity="0"/></linearGradient></defs><g fill="none"><path fill="#5A78FF" d="M25.965 68.979a5.836 5.836 0 0 1-5.391-3.6L.447 16.791A5.827 5.827 0 0 1 3.6 9.178L24.681.447A5.825 5.825 0 0 1 32.293 3.6L52.42 52.19a5.827 5.827 0 0 1-3.153 7.61l-21.081 8.735a5.8 5.8 0 0 1-2.221.444Zm.946-65.841c-.353 0-.703.07-1.029.207L4.8 12.076a2.689 2.689 0 0 0-1.455 3.514l20.127 48.591a2.693 2.693 0 0 0 3.514 1.456L48.067 56.9a2.689 2.689 0 0 0 1.455-3.514L29.395 4.8a2.694 2.694 0 0 0-2.484-1.662Z"/><path fill="url(#a)" d="M34.589 6.612h3.137v20.824h-3.137z" opacity=".7" style="mix-blend-mode:multiply" transform="rotate(-22.5 36.157 17.024)"/><path fill="url(#a)" d="M43.554 26.884h3.137v23.572h-3.137z" opacity=".7" style="mix-blend-mode:multiply" transform="rotate(157.5 45.122 38.67)"/><path fill="#5A78FF" d="M44.523 35.724c-6.029 2.5-11.063 5.946-14.359 10.1L21.666 25.3a35.885 35.885 0 0 1 14.359-10.1c6.029-2.5 12.12-3.71 17.295-3.005l8.5 20.523a35.869 35.869 0 0 0-17.297 3.006Z"/><g opacity=".4" style="mix-blend-mode:multiply"><path fill="url(#b)" d="M23.523 24.724c-6.029 2.5-11.063 5.946-14.359 10.1L.666 14.3A35.885 35.885 0 0 1 15.025 4.2C21.054 1.7 27.145.49 32.32 1.195l8.5 20.523a35.869 35.869 0 0 0-17.297 3.006Z" opacity=".9" transform="translate(21 11)"/><path fill="url(#c)" d="M23.523 24.724c-6.029 2.5-11.063 5.946-14.359 10.1L.666 14.3A35.885 35.885 0 0 1 15.025 4.2C21.054 1.7 27.145.49 32.32 1.195l8.5 20.523a35.869 35.869 0 0 0-17.297 3.006Z" opacity=".7" transform="translate(21 11)"/></g><path fill="#5A78FF" d="M47.292 41.981c-6.526 0-12.5 1.261-17.13 3.835V25.064a35.885 35.885 0 0 1 17.13-3.835c6.526 0 12.617 1.21 17.129 3.84v20.752a35.869 35.869 0 0 0-17.129-3.84zM80.63 42l5.28-16.69a.55.55 0 0 1 .49-.42h2.65a.65.65 0 0 1 .52.42l4.11 10.53c.08.21.29.23.36 0l4.08-10.53a.65.65 0 0 1 .52-.42h2.65a.55.55 0 0 1 .49.42L107 42a.4.4 0 0 1-.39.57h-3.15a.46.46 0 0 1-.47-.36l-3.35-10.84c-.05-.21-.29-.21-.36 0l-4 10.76a.59.59 0 0 1-.57.44h-1.85c-.29 0-.44-.16-.55-.44l-4.08-10.76c-.08-.21-.29-.21-.34 0l-3.43 10.84a.47.47 0 0 1-.49.36h-3a.39.39 0 0 1-.34-.57zM108 36a7 7 0 1 1 7 6.86 6.77 6.77 0 0 1-7-6.86zm10.4 0a3.44 3.44 0 1 0-3.4 3.67 3.53 3.53 0 0 0 3.38-3.67h.02zm9.76 5.49c-.26-.21-.49-.13-.49.23v.34a.49.49 0 0 1-.47.49h-2.44a.51.51 0 0 1-.49-.49V25.37a.51.51 0 0 1 .49-.49h2.57a.49.49 0 0 1 .47.49v4.76c0 .34.23.44.6.18a5.71 5.71 0 0 1 3.41-1.14c3.56 0 6.29 3 6.29 6.86a6.56 6.56 0 0 1-6.4 6.86 5.32 5.32 0 0 1-3.54-1.4zm6.4-5.46a3.44 3.44 0 1 0-6.86 0 3.48 3.48 0 0 0 3.41 3.61 3.53 3.53 0 0 0 3.45-3.64v.03zm5.69-9.93a2 2 0 1 1 4 0 2 2 0 0 1-4 0zm.18 16V30a.49.49 0 0 1 .47-.49h2.57a.51.51 0 0 1 .53.49v12.06a.51.51 0 0 1-.49.49h-2.61a.49.49 0 0 1-.47-.49v.04zm6.43-3.96V25.37a.49.49 0 0 1 .47-.49h2.57a.51.51 0 0 1 .49.49v12.85c0 .83.36 1.38 1.27 1.38a.49.49 0 0 1 .49.49v2.13a.49.49 0 0 1-.49.47c-3.42 0-4.8-1.12-4.8-4.55zm6.25-2.06a6.76 6.76 0 1 1 13.52.05c0 .47-.13.86-.6.86h-8.94c-.23 0-.31.13-.29.34a3 3 0 0 0 3.2 2.57 3.18 3.18 0 0 0 2.47-1.12 1 1 0 0 1 .83-.42h2.39c.42 0 .6.29.44.7a6.85 6.85 0 0 1-13-3l-.02.02zm9.49-1.2c.18 0 .26-.08.23-.29a3 3 0 0 0-3-2.44 3.08 3.08 0 0 0-3 2.37c-.05.18 0 .36.21.36h5.56zm6.19 7.18V25.37a.49.49 0 0 1 .47-.49h8.19c3.74 0 6.29 2.18 6.29 5.85 0 3.67-2.89 5.93-6.47 5.93h-4.34a.43.43 0 0 0-.47.49v4.91a.51.51 0 0 1-.49.49h-2.7a.49.49 0 0 1-.48-.49zm8.48-8.42a2.82 2.82 0 0 0 2.73-2.89 2.67 2.67 0 0 0-2.74-2.75h-4.37c-.31 0-.44.16-.44.47v4.73c0 .31.13.47.44.47l4.38-.03zM185 36a6.61 6.61 0 0 1 6.45-6.86 5.24 5.24 0 0 1 3.46 1.33c.23.21.49.18.49-.13V30c0-.26.21-.47.47-.47h2.44a.51.51 0 0 1 .49.49v8.58c0 .65.23.94.68 1a.45.45 0 0 1 .44.42v2.26a.44.44 0 0 1-.44.44c-1.72 0-2.73-.49-3.3-1.48-.16-.26-.34-.31-.6-.05a5.74 5.74 0 0 1-4.19 1.74A6.59 6.59 0 0 1 185 36zm10.4 0a3.43 3.43 0 1 0-6.84 0 3.43 3.43 0 1 0 6.84 0zm5.73 11.13V45a.49.49 0 0 1 .49-.47 3.65 3.65 0 0 0 3.74-2.5 1.44 1.44 0 0 0-.1-1l-4.78-10.82a.47.47 0 0 1 .42-.7h2.57c.26 0 .42.21.52.47l3 6.92c.21.55.55.52.78 0l2.86-6.94c.1-.26.23-.42.49-.42h2.47a.45.45 0 0 1 .44.62l-4.92 11.64c-1.79 4.24-3.69 5.82-7.49 5.82a.51.51 0 0 1-.49-.49z"/></g></svg>
